front/src/Assets/image/sidebar/exit.svg

<svg width="24" height="24" viewBox="0 0 24 24" fill="none" xmlns="http://www.w3.org/2000/svg">
<path fill-rule="evenodd" clip-rule="evenodd" d="M7.00002 11.54C6.66865 11.54 6.40002 11.8087 6.40002 12.14C6.40002 12.4714 6.66865 12.74 7.00002 12.74H16.619L13.4963 15.8552C13.2617 16.0893 13.2613 16.4692 13.4953 16.7038C13.7293 16.9384 14.1092 16.9388 14.3438 16.7048L18.4938 12.5648C18.5115 12.5472 18.5279 12.5286 18.5431 12.5091C18.6114 12.4217 18.6559 12.315 18.6672 12.1985C18.6691 12.1791 18.6701 12.1596 18.6701 12.14C18.6701 12.1188 18.6689 12.0977 18.6667 12.0768C18.6556 11.9707 18.6169 11.8729 18.5578 11.7906C18.5387 11.7639 18.5174 11.7387 18.4938 11.7152L14.3438 7.57523C14.1092 7.3412 13.7293 7.34165 13.4953 7.57625C13.2613 7.81085 13.2617 8.19075 13.4963 8.42478L16.6191 11.54H7.00002Z" fill="#666666"/>
<path d="M6.53998 2.99996H4.99998C3.89998 2.99996 2.99998 3.89996 2.99998 4.99996L2.99998 18.46C2.99998 19.56 3.89998 20.46 4.99998 20.46H6.53998" stroke="#666666" stroke-width="1.2" stroke-miterlimit="10" stroke-linecap="round" stroke-linejoin="round"/>
</svg>

<svg xmlns="http://www.w3.org/2000/svg" fill="none" viewBox="0 0 24 24">
  <path fill="#666" fill-rule="evenodd" d="M7 11.54a.6.6 0 000 1.2h9.619l-3.123 3.115a.6.6 0 00.848.85l4.15-4.14a.59.59 0 00.173-.367.6.6 0 00-.173-.483l-4.15-4.14a.6.6 0 10-.848.85l3.123 3.115H7z" clip-rule="evenodd"/>
  <path stroke="#666" stroke-linecap="round" stroke-linejoin="round" stroke-miterlimit="10" stroke-width="1.2" d="M6.54 3H5c-1.1 0-2 .9-2 2v13.46c0 1.1.9 2 2 2h1.54"/>
</svg>
